X: 846
T: Kitty's Wedding
R: hornpipe
%S: s:4 b:16(4+4+4+4)
B: Francis O'Neill: "The Dance Music of Ireland" (1907) #846
Z: Frank Nordberg - http://www.musicaviva.com
F: http://www.musicaviva.com/abc/tunes/ireland/oneill-1001/0846/oneill-1001-0846-1.abc
%m: Tn = (3n/o/n/
M: C|
L: 1/8
K: D
"^A"[|]\
({g}fe) | d2(Bd) A2(FA) | TBAFA D2(TED) | B,DA,D DFBF | AFDF E2 ||
| (Tfe) | d2(Bd) A2(FA) | TBAFA D2(TED) | B,DA,D DFBA | FAEA D2 :|
"^B"\
|: (fg) | afed bafd | Adfd edBd | DFAd FAde | fadf e2 ||
|  (fg) | afed bafd | Adfd edBd | DFAd FAdf | eABc d2 :|
